src/icons/hds/ui/person-wheelchair.svg

<svg xmlns="http://www.w3.org/2000/svg" width="24" height="24" viewBox="0 0 24 24">
  <g fill="none" fill-rule="evenodd">
    <rect width="24" height="24"/>
    <path fill="currentColor" d="M7.99937211,9.49841358 L7.99957688,11.7575906 C7.75899918,11.9187031 7.53052625,12.1055127 7.31801948,12.3180195 C5.56066017,14.0753788 5.56066017,16.9246212 7.31801948,18.6819805 C9.04399738,20.4079584 11.8232107,20.4387794 13.5868042,18.7744436 L13.6819805,18.6819805 L15.0961941,20.0961941 C12.5577862,22.634602 8.44221382,22.634602 5.90380592,20.0961941 C3.36539803,17.5577862 3.36539803,13.4422138 5.90380592,10.9038059 C6.5236058,10.284006 7.23743365,9.81554193 7.99937211,9.49841358 Z M11,1 C12.6568542,1 14,2.34314575 14,4 C14,5.30625206 13.1651499,6.41751442 11.9999111,6.82932572 L11.999,9 L16,9 L16,11 L11.999,11 L12,11.7912111 C12.0004642,12.3185227 12.2054169,12.8232777 12.5857853,13.203646 C13.127131,13.7449917 13.5156118,13.8924792 14.4669315,13.9563145 L14.7546707,13.9725448 C16.3724546,14.0495822 17.2150889,14.2974158 18.2426395,15.3249664 C19.1739272,16.2562541 19.4647456,17.0356492 19.5684125,18.3778833 L19.595061,18.8129351 C19.6481912,19.928669 19.7607061,20.3518757 20.2892706,20.9054481 L20.3639598,20.9818206 L18.9497463,22.3960342 C17.9602531,21.406541 17.6937897,20.5885203 17.6066183,19.0846781 L17.5973248,18.9080654 C17.5417796,17.7416164 17.4213284,17.3320824 16.8284259,16.7391799 C16.2613019,16.1720558 15.8619478,16.0371934 14.8074707,15.9779277 L14.6595404,15.9702811 C13.0417566,15.8932438 12.1991223,15.6454102 11.1715717,14.6178596 C10.4488502,13.8951381 10.0409319,12.9408645 10.0029208,11.9429623 L9.99909928,6.82897577 C8.83437743,6.41688515 8,5.30588222 8,4 C8,2.34314575 9.34314575,1 11,1 Z M11,3 C10.4477153,3 10,3.44771525 10,4 C10,4.55228475 10.4477153,5 11,5 C11.5522847,5 12,4.55228475 12,4 C12,3.44771525 11.5522847,3 11,3 Z"/>
  </g>
</svg>

<svg viewBox="0 0 24 24" role="img" xmlns="http://www.w3.org/2000/svg"><g fill="none" fill-rule="evenodd"><path d="M0 0h24v24H0z"/><path d="M8 9.498v2.26a4.5 4.5 0 105.587 7.017l.095-.093 1.414 1.414A6.5 6.5 0 118 9.498zM11 1a3 3 0 011 5.83L11.999 9H16v2h-4.001l.001.791c0 .528.205 1.032.586 1.413.541.541.93.688 1.88.752l.289.017c1.617.077 2.46.324 3.488 1.352.93.931 1.222 1.71 1.325 3.053l.027.435c.053 1.116.166 1.539.694 2.092l.075.077-1.414 1.414c-.99-.99-1.256-1.807-1.343-3.311l-.01-.177c-.055-1.166-.176-1.576-.769-2.169-.567-.567-.966-.702-2.02-.761l-.148-.008c-1.618-.077-2.46-.325-3.488-1.352a3.989 3.989 0 01-1.17-2.675L10 6.829A3.001 3.001 0 0111 1zm0 2a1 1 0 100 2 1 1 0 000-2z" fill="currentColor"/></g></svg>
